!!!OTL: Die Brombeerpflueckerin Ein Maedchen wollte frueh aufstehn,
!!!ARE: Europa, Mitteleuropa, Deutschland
!!!YOR: 7, S. 104
!!    1918 aufgezeichnet (vor)
!!!SCT: Q0147J
!!!YEM: Copyright 1995, estate of Helmut Schaffrath.
**kern
*ICvox
*Ivox
*M4/4
*k[f#]
*G:
{4d
=1
4g
4g
4g
8f#
8e
=2
4e
4d
4d}
{4d
=3
4e
4cc
4b
4a
=4
2g
4r}
{4d
=5
4g
4g
4g
8f#
8e
=6
4e
4d
4d}
{4d
=7
4e
4cc
4b
4a
=8
2g
4r}
{8g
8a
=9
4.b
8b
4.b
8dd
=10
4dd
4cc
4a
8r}
{8dd
=11
4.dd
8ff#
4.ff#
8ee
=12
4ee
4dd
4b}
{4dd
=13
4dd
4cc
4e
4f#
=14
4g
4a
4b}
{8g
8a
=15
4.b
8b
4.b
8dd
=16
4dd
4cc
4a
8r}
{8dd
=17
4.dd
8ff#
4.ff#
8ee
=18
4ee
4dd
4b}
{4dd
=19
4dd
4cc
4e
4f#
=20
2g
4r}
==
!!!AGN: Ballade, Verfuehrung, Schwangerschaft
!! Vierte und siebte Zeile refrainartig.
!!!ONB: ESAC (Essen Associative Code) Database: BALLADE
!!!AMT: simple quadruple
!!!AIN: vox
!!!EED: Helmut Schaffrath
!!!EEV: 1.0
*-
